svg/furkot/material-design/parking.svg

<svg viewBox="0 0 512 512" xmlns="http://www.w3.org/2000/svg"><path d="m455.111 0h-398.222c-31.289 0-56.889 25.6-56.889 56.889v398.222c0 31.289 25.6 56.889 56.889 56.889h398.222c31.289 0 56.889-25.6 56.889-56.889v-398.222c0-31.289-25.6-56.889-56.889-56.889zm-261.689 295.822v102.4h-51.2v-284.444h122.311c42.667 0 62.578 8.533 79.644 25.6 19.912 17.066 25.6 39.822 25.6 65.422 0 28.444-8.534 51.2-25.6 65.422s-36.977 22.756-79.644 22.756h-71.111z"/><path d="m193.422 256v-102.4h65.422c19.913 0 34.135 5.689 42.667 17.067 8.533 11.377 14.222 19.911 14.222 34.133 0 17.067-5.689 25.6-14.222 36.978-8.532 8.533-19.911 14.222-39.822 14.222z"/></svg>

<svg xmlns="http://www.w3.org/2000/svg" viewBox="0 0 512 512"><path d="M455.111 0H56.889C25.6 0 0 25.6 0 56.889V455.111C0 486.4 25.6 512 56.889 512H455.111C486.4 512 512 486.4 512 455.111V56.889C512 25.6 486.4 0 455.111 0ZM193.422 295.822V398.222H142.222V113.778H264.533C307.2 113.778 327.111 122.311 344.177 139.378 364.089 156.444 369.777 179.2 369.777 204.8 369.777 233.244 361.243 256 344.177 270.222S307.2 292.978 264.533 292.978H193.422V295.822Z"/><path d="M193.422 256V153.6H258.844C278.757 153.6 292.979 159.289 301.511 170.667 310.044 182.044 315.733 190.578 315.733 204.8 315.733 221.867 310.044 230.4 301.511 241.778 292.979 250.311 281.6 256 261.689 256H193.422Z"/></svg>
